pico_icons/symbolic/actions/format-justify-fill-symbolic.svg

<?xml version="1.0" encoding="UTF-8"?>
<svg height="16px" viewBox="0 0 16 16" width="16px" xmlns="http://www.w3.org/2000/svg">
    <path d="m 1 1 v 2 h 14 v -2 z m 0 4 v 2 h 14 v -2 z m 0 4 v 2 h 14 v -2 z m 0 4 v 2 h 14 v -2 z m 0 0" fill="#2e3436"/>
</svg>

<svg xmlns="http://www.w3.org/2000/svg" width="16" height="16" version="1.1">
 <path style="fill:#fff1e8" d="M 1,1 V 3 H 15 V 1 Z M 1,5 V 7 H 15 V 5 Z M 1,9 V 11 H 15 V 9 Z M 1,13 V 15 H 15 V 13 Z"/>
</svg>
